X:1
T:Milost mira
T:Milost mira
T:op. 9, # 10
T:Pavel G. Tsjesnokov
C:Pavel G. Tsjesnokov
%%score [ 1 2 3 4 ]
L:1/8
Q:1/4=140
M:4/2
K:C
V:1 treble nm="S1"
V:2 treble nm="S2"
V:3 treble nm="A1"
V:4 treble nm="A2"
V:1
"^Svært høytidelig"!f!!<(! c2 d2!<)! | e12!>(! e4!>)! |!<(! c4 c2!<)! d2 e8- | %3
w: Mi- lost|mi- ra,|zjert- vu hva- le-|
!>(! e6 e2!>)! e4 z4 ||[M:4/4]!mf! A2 B2 (3c2 B2 A2 | d8- | d4 z4 || %7
w: * ni- ja.|I so du- hom tvo-|im.|_|
[M:4/2]!f! f6!>(! c2 !breath!c4!>)!!<(! d4!<)! |!<(! e6!<)!!>(! e2 e4!>)! z4 || z8 z4!mf! A4 | %10
w: I- ma- mi ko|Gos- po- du.|Dos-|
 c4 B2 c2 d8- | d4 d2 d2 !breath!d4 c2 d2 | e6 e2 d4 f4 | e12 d4 | e6 e2 d2 c2 d2 f2 | e8 e6 z2 | %16
w: toi- no i pra-|* ved- no est po- kla-|nja- ti- sja Ot-|tsu, i|Si- nu, i Svja- to- mu|Du- hu,|
!mf! f6 f2 f2 f2 c2 d2 | e8 e6 z2 | d8- d4 A2 B2 | (c12 B4 |!p!!>(! A8) A6!>)! z2 || %21
w: Tro- i- tse, E- di- no-|sustsj- nei|i _ Ne- raz-|del- *|* nei.|
[M:3/2][Q:1/4=170]"^Hurtigere" z12 |!f! e4 e4 d2 e2 | f8 e4 | d4 c4!<(! d4 | %25
w: |Svjat, Svjat, Svjat Gos-|pod, Gos-|pod Sa- va-|
 e4-!<)! e2 z2!f! c2 d2 |[M:4/2] e12 e4- | e4!<(! e2 f2!<)! g8- | g8- g2 z2!ff! !>!e4- | %29
w: of, _ is- pol|Ne- bo|_ i zem- lja|_ _ sla-|
 e2 e2 e2 e2 g6!ff! g2 | f4 f4 f4 f2!>(! f2!>)! | e4 e4 e4!>(! d2 d2!>)! | d4 c4!p! B8 | %33
w: * vi Tvo- e- ja. O-|san- na v Visj- nih, O-|san- na v Visj- nih, O-|san- na v Visj-|
 A2 A2!<(! A2 B2 c2 B2!<)! A2 c2 | d8 d4 d4 |!<(! d4!<)! d2 e2 (f2 e2) (d2 f2) | g16- | %37
w: nih, Bla- go- slo- ven Grja- dii vo|I- mja Gos-|pod- ne, O- san- * na _|v Visj-|
 g4 e2 e2 g4 g4 | f4 f2 f2 f4 f4 | e8 !breath!e4!f! e4 | d8 f8 |!>(! d16!>)! | c12 z4 |] %43
w: * nih, O- san- na|v Visj- nih, O- san- na|v Visj- nih, O-|san- na|v Visj-|nih.|
V:2
 z4 | z4 B2 c2 B4!>(! B4!>)! | z8 B4 B2 c2 |!>(! B6 B2!>)! B4 z4 ||[M:4/4] z8 | %5
w: |Mi- lost mi- ra,|zjert- vu hva-|le- ni- ja.||
 (3z2!mf! A2 A2 (3A2 A2 A2 | A4 z4 ||[M:4/2] z4!f! c2!>(! c2 !breath!c4!>)!!<(! z2 B2!<)! | %8
w: I so du- hom tvo-|im.|I- ma- mi ko|
!<(! B6!<)!!>(! B2 B4!>)! z4 || z16 | z8 z4!mf! A4 | (3A2 A2 A2 (3A2 A2 A2 !breath!A4 A2 B2 | %12
w: Gos- po- du.||Dos-|toi- no i pra- ved- no est po- kla-|
 c6 c2 B4 d4 | c12 B4 | c6 c2 B2 A2 B2 d2 | c8 c6 z2 | z4!mf! c2 c2 c4- c2 z2 | %17
w: nja- ti- sja Ot-|tsu, i|Si- nu, i Svja- to- mu|Du- hu,|Tro- i- tse _|
 z2 B2!>(! B2 B2!>)! B4 B4 | z4 A4 A4 A4 | A4 A4!>(! F4 G2 G2!>)! |!p!!>(! A8 A6!>)! z2 || %21
w: E- di- no- sustsj- nei|i Ne- raz-|del- nei, i Ne- raz-|del- nei.|
[M:3/2] z12 |!f! c4 c4 B2 c2 | d8 c4 | B4 A4!<(! B4 | c4-!<)! c2 z2 z4 | %26
w: |Svjat, Svjat, Svjat Gos-|pod, Gos-|pod Sa- va-|of, _|
[M:4/2] z4!f! c2 c2 B2 A2 B2 d2 | c4 z4 z4 e2 e2 | d2 c2 d2 f2 e2 z2!ff! !>!e4- | %29
w: is- pol Ne- bo i zem-|lja, is- pol|Ne- bo i zem- lja sla-|
 e2 e2 d2 d2 ^c6!ff! c2 | d4 =c4 B4 B2!>(! B2!>)! | c4 B4 A4!>(! A2 A2!>)! | ^G4 A4!p! (A4 G4) | %33
w: * vi Tvo- e- ja. O-|san- na v Visj- nih, O-|san- na v Visj- nih, O-|san- na v Visj- *|
 A2 z2 z4 z8 | z2 A2 A2!<(! G2 F2 G2!<)! A2 c2 |!<(! B4!<)! B2 B2 B4 B2 z2 | %36
w: nih,|Bla- go- slo- ven Grja- dii vo|I- mja Gos- pod- ne,|
 z4 (d2 e2) (f2 e2) d4 | e4 d2 d2 ^c4 c4 | d4 =c2 c2 B4 B4 | c8 !breath!c4!f! c4 | c8 c8 | %41
w: O- * san- * na|v Vishj- nih, O- san- na|v Visj- nih, O- san- na|v Visj- nih, O-|san- na|
!>(! (c4 B2 A2 B8)!>)! | G12 z4 |] %43
w: v Visj- * * *|nih.|
V:3
 z4 | z4 ^G2 ^F2 G4!>(! G4!>)! | z8 ^G4 G2 ^F2 |!>(! ^G6 G2!>)! G4 z4 ||[M:4/4] z8 | %5
w: |Mi- lost mi- ra,|zjert- vu hva-|le- ni- ja.||
 (3z2!mf! !courtesy!=F2 F2 (3F2 F2 F2 | F4 z4 || %7
w: I so du- hom tvo-|im.|
[M:4/2] z4!f! A2!>(! A2 !breath!A4!>)!!<(! z2 A2!<)! |!<(! A6!<)!!>(! ^G2 G4!>)! z4 || z16 | %10
w: I- ma- mi ko|Gos- po- du.||
 z8 z4!mf! F4 | (3F2 F2 F2 (3F2 F2 F2 !breath!F4 A2 A2 | A4 A4 A4 A2 A2 | %13
w: Dos-|toi- no i pra- ved- no est po- kla-|nja- ti- sja, po- kla-|
 !tenuto!A2 !tenuto!A2 !tenuto!A2 !tenuto!A2 !tenuto!A4 A4 | A4 A4 A8- | %15
w: nja- ti- sja Ot- tsu, i|Si- nu, i|
 A2 !tenuto!A2 !tenuto!A2 !tenuto!A2 !tenuto!A4 !tenuto!A4 | z4!mf! A2 A2 A4- A2 z2 | %17
w: _ Svja- to- mu Du- hu,|Tro- i- tse _|
 z2 A2!>(! A2 ^F2!>)! ^G4 G4 | z4 =F4 F4 F4 | F4 E4!>(! D4 D2 D2!>)! |!p!!>(! E8 E6!>)! z2 || %21
w: E- di- no- sustsj- nei|i Ne- raz-|del- nei, i Ne- raz-|del- nei.|
[M:3/2]!f! c4 c4 c2 B2 | A12 | A4 A4 G2 A2 | B4 A4!<(! G4 | G4-!<)! G2 z2 z4 | %26
w: Svjat, Svjat, Svjat Gos-|pod.|Svjat, Svjat, Svjat Gos-|pod Sa- va-|of, _|
[M:4/2] z4!f! A2 A2 ^G2 ^F2 G2 B2 | A4 z4 z4 c2 c2 | B2 A2 B2 d2 c2 z2!ff! !>!c4- | %29
w: is- pol Ne- bo i zem-|lja, is- pol|Ne- bo i zem- lja sla-|
 c2 c2 _B2 B2 A6!ff! A2 | A4 A4 G4 G2!>(! G2!>)! | G4 G4 F4!>(! F2 F2!>)! | E4 E4!p! E8 | %33
w: * vi Tvo- e- ja. O-|san- na v Visj- nih, O-|san- na v Visj- nih, O-|san- na v Visj-|
 A2 z2 z4 z8 | z2 F2 F2!<(! E2 D2 E2!<)! F2 A2 |!<(! G4!<)! G2 G2 G4 G2 z2 | %36
w: nih,|Bla- go- slo- ven Grja- dii vo|I- mja Gos- pod- ne,|
 z4 (B2 c2) (d2 c2) B4 | c4 _B2 B2 A4 A4 | A4 A2 A2 G4 G4 | G8 !breath!G4!f! G4 | A8 A8 | %41
w: O- * san- * na|v Vishj- nih, O- san- na|v Visj- nih, O- san- na|v Visj- nih, O-|san- na|
!>(! (G12 F4)!>)! | E12 z4 |] %43
w: v Visj- *|nih.|
V:4
!f!!<(! C2 D2!<)! | E12!>(! E4!>)! |!<(! C4 C2!<)! D2 E8- |!>(! E6 E2!>)! E4 z4 || %4
w: Mi- lost|mi- ra,|zjert- vu hva- le-|* ni- ja.|
[M:4/4]!mf! A2 B2 (3c2 B2 A2 | d8- | d4 z4 ||[M:4/2]!f! F6!>(! C2 !breath!C4!>)!!<(! D4!<)! | %8
w: I so du- hom tvo-|im.|_|I- ma- mi ko|
!<(! E6!<)!!>(! E2 E4!>)! z4 || z8 z4!mf! A,4 | C4 B,2 C2 D8- | D4 D2 D2 !breath!D4 C2 D2 | %12
w: Gos- po- du.|Dos-|toi- no i pra-|* ved- no est po- kla-|
 E6 E2 D4 F4 | E12 D4 | E6 E2 D2 C2 D2 F2 | E8 E6 z2 |!mf! F6 F2 F2 F2 C2 D2 | E8 E6 z2 | %18
w: nja- ti- sja Ot-|tsu, i|Si- nu, i Svja- to- mu|Du- hu,|Tro- i- tse, E- di- no-|sustsj- nei|
 D8- D4 A,2 B,2 | (C12 B,4 |!p!!>(! A,8) A,6!>)! z2 ||[M:3/2]!f! c4 c4 c2 B2 | A12 | D4 D4 E2 C2 | %24
w: i _ Ne- raz-|del- *|* nei.|Svjat, Svjat, Svjat Gos-|pod.|Svjat, Svjat, Svjat Gos-|
 G4 G4!<(! G4 | C4-!<)! C2 z2!f! C2 D2 |[M:4/2] E12 E4- | E4!<(! E2 F2!<)! G8- | %28
w: pod Sa- va-|of, _ is- pol|Ne- bo|_ i zem- lja|
 G8- G2 z2!ff! !>!c4- | c2 c2 _B2 B2 A6!ff! A2 | D4 D4 G4 G2!>(! G2!>)! | C4 C4 F4!>(! F2 F2!>)! | %32
w: _ _ sla-|* vi Tvo- e- ja. O-|san- na v Visj- nih, O-|san- na v Visj- nih, O-|
 E4 A,4!p! E8 | A,2 A,2!<(! A,2 B,2 C2 B,2!<)! A,2 C2 | D8 D4 D4 | %35
w: san- na v Visj-|nih, Bla- go- slo- ven Grja- dii vo|I- mja Gos-|
!<(! D4!<)! D2 E2 (F2 E2) (D2 F2) | (G16 | c4) _B2 B2 A4 A4 | D4 D2 D2 G4 G4 | %39
w: pod- ne, O- san- * na _|v Visj-|* nih, O- san- na|v Visj- nih, O- san- na|
 C8 !breath!C4!f! C4 | F8 D8 |!>(! G16!>)! | C12 z4 |] %43
w: v Visj- nih, O-|san- na|v Visj-|nih.|

